X:1
T:My Mother
T:My Mother
T:Bentley DeForest Ackley
T:Alfred Henry Ackley, 1911
T:Public Domain Courtesy of the Cyber Hymnal™
T:Public Domain Courtesy of the Cyber Hymnal™
C:Bentley DeForest Ackley
Z:Public Domain
Z:Courtesy of the Cyber Hymnal™
%%score ( 1 2 ) ( 3 4 )
L:1/8
Q:1/4=92
M:4/4
K:Ab
V:1 treble 
V:2 treble 
V:3 bass 
V:4 bass 
V:1
 [CE][CA] | [Ec][Ec][=D=B][Ec] [_Ge][F_d][FA][_F_B] | [Ec][Ec][=D=B][Ec] [F_d]2 [Ec][Ec] | %3
w: 1.~To my|mem- ory comes a vi- sion That my|heart can ne’er for- get, Of my|
w: 2.~’Twas the|voice of my dear mo- ther, Full of|love and sym- pa- thy, That so|
w: 3.~Tho’ my|mo- ther has de- part- ed, Still I|feel her spir- it near, As she|
 [Ec][DB][C=A][DB] [Ec][DB][DF][DG] | A6 [CE][CA] | [Ec][Ec][=D=B][Ec] [_Ge][F_d][FA][_F_B] | %6
w: mo- ther, with her ten- der care for|me, For the|face of years for- got- ten Still re-|
w: oft- en cheered my heart when sad and|lone, For I|felt the need of Je- sus, And her|
w: pleads be- fore the heav’n- ly Fa- ther’s|throne, And her|prayers my life shall an- swer, For I|
 [Ec][Ec][=D=B][Ec] [F_d]2 [Ec][Ec] | [=Dc][DB][D=A][DB] [D_A]D[Dc][DB] | [B,Ee]6 || %9
w: mains, I see it yet, And her|brow re- flects the light of Cal- va-|ry.|
w: con- stant prayer for me Led my|wan- dering foot- steps to my Fa- ther’s|home.|
w: long to meet her there, And to|see the Christ who bought me for His|own.|
"^Refrain" [Ee][F=d] | [Gd][EG][Ec][EB] [Ge][Fd][DF][DG] | [CB][CA][Ec][CA] [CEc]2 [Ee][F=d] | %12
w: And the|tear- drops, how they glist- ened, When she|told me of His love, How the|
w: |||
w: |||
 dGcB edB=B | c6 [Ec][Ec] | [Ae][Af][Fc][Fc] [Ee][Ee][EB][EB] | %15
w: ten- der Shep- herd came to seek the|lost, O’er the|mount- ain, thro’ the val- ley, Ev- ery|
w: |||
w: |||
 [Ec]"^riten."[Ec][Fd][Fd] !fermata![FG]2 [=EG][EG] | [FA][FA][FB][F=B] [Ec][Ee] [Ec]>[D_B] | %17
w: foot- print stained with blood, Till He|pur- chased my re- demp- tion on the|
w: ||
w: ||
 [CA]6 |] %18
w: cross.|
w: |
w: |
V:2
 x2 | x8 | x8 | x8 | (CE=D_D C2) x2 | x8 | x8 | x5 =D x2 | x6 || x2 | x8 | x8 | E2 E2 G2 E2 | %13
 (EEEE E2) x2 | x8 | x8 | x8 | x6 |] %18
V:3
 z2 | A,,2 A,2 A,,2 A,2 | A,,2 A,2 A,,2 A,2 | E,,2 E,2 E,,2 E,2 | (E,_G,_F,F, E,2) z2 | %5
w: |~ ~ ~ ~|~ ~ ~ ~|~ ~ ~ ~|~ * * * *|
 A,,2 [A,,A,]2 A,,2 A,2 | A,,2 A,2 A,,2 A,2 | B,,2 B,2 F,2 A,2 | %8
w: ~ ~ ~ ~|~ ~ ~ ~|~ ~ ~ ~|
 ([G,B,][G,B,][A,_C][=A,=CD] [B,D]2) || [E,C][E,_C] | %10
w: ~ * * * *|~ ~|
 [E,B,][E,B,][E,G,][E,G,] [E,B,][E,B,][E,G,]E, | %11
w: ~ ~ ~ ~ ~ ~ ~ ~|
 [A,,E,][A,,E,][A,,A,][A,,E,] [A,,A,]2 [C,A,][_C,A,] | (G,B,) [E,G,]2 [E,B,]2 [E,G,]2 | %13
w: ~ ~ ~ ~ ~ ~ ~|Shep- * herd came to|
 [A,,A,][A,,A,][A,,A,][A,,A,] [A,,A,]2 A,A, | [F,C][F,C][F,A,][F,A,] [G,B,][G,B,][E,G,][E,G,] | %15
w: seek and save the lost, * *||
 A,[F,A,][B,,B,][B,,B,] [=B,,=D]2 [C,C][C,C] | [F,C][F,C][D,D][=D,A,] [E,A,][E,C] [E,A,]>[E,G,] | %17
w: ||
 [A,,A,]6 |] %18
w: |
V:4
 x2 | x8 | x8 | x8 | A,,6 x2 | x8 | x8 | x4 B,,4 | E,6 || x2 | x7 E, | x8 | B,,2 x6 | x6 A,A, | %14
 x8 | A, x7 | x8 | x6 |] %18

